src/img/ArrowWhiteR.svg

<svg fill="none" height="12" viewBox="0 0 9 12" width="9" xmlns="http://www.w3.org/2000/svg"><path d="m8.7408 6.49448c.07994-.05504.1453-.12869.19045-.21461.04516-.08592.06875-.18153.06875-.27859s-.02359-.19267-.06875-.27858c-.04515-.08592-.11051-.15957-.19045-.21462l-7.799464-5.399998c-.08996-.062505-.195328-.09915847-.304656-.1059801s-.218435.0164509-.315466.0672894c-.097031.0508377-.178275.1272967-.234905.2210697-.0566302.093772-.0864808.201274-.08630826.310821v10.800018c.00045142.1093.03068586.2164.08745176.3098.0567655.0934.1379155.1695.2347215.2202.096807.0508.205607.0741.314702.0676.109094-.0065.214354-.0426.30446-.1044z" fill="#fff"/></svg>

<svg width="9" height="12" viewBox="0 0 9 12" fill="none" xmlns="http://www.w3.org/2000/svg">
<path d="M8.7408 6.49448C8.82074 6.43944 8.8861 6.36579 8.93125 6.27987C8.97641 6.19395 9 6.09834 9 6.00128C9 5.90422 8.97641 5.80861 8.93125 5.7227C8.8861 5.63678 8.82074 5.56313 8.7408 5.50808L0.941336 0.108082C0.851376 0.045577 0.746008 0.00892353 0.63668 0.0021019C0.527352 -0.00471973 0.418245 0.0185528 0.321214 0.0693913C0.224183 0.120229 0.142939 0.196688 0.086309 0.290461C0.0296788 0.384233 -0.000171795 0.491735 7.43741e-07 0.601282L7.43741e-07 11.4013C0.000452158 11.5106 0.0306866 11.6177 0.0874525 11.7111C0.144218 11.8045 0.225368 11.8806 0.322174 11.9313C0.418981 11.9821 0.527781 12.0054 0.636876 11.9989C0.74597 11.9924 0.85123 11.9563 0.941336 11.8945L8.7408 6.49448Z" fill="white"/>

</svg>
